material/.icons/material/police-badge-outline.svg

<svg xmlns="http://www.w3.org/2000/svg" viewBox="0 0 24 24"><path d="M12 4.21c1.24.51 2.65.79 4 .79 1.05 0 2.1-.16 3.08-.46C18.5 5.5 18 6.71 18 8c0 1.32.54 2.93 1.1 4.63.4 1.2.9 2.7.9 3.37 0 1.03-3.53 3-8 3.96C7.54 19 4 17.03 4 16c0-.67.5-2.17.9-3.37C5.46 10.93 6 9.32 6 8c0-1.29-.5-2.5-1.08-3.46C5.9 4.84 6.96 5 8 5c1.35 0 2.76-.28 4-.79M20 2c-1.15.64-2.6 1-4 1s-2.86-.37-4-1c-1.14.63-2.6 1-4 1s-2.85-.36-4-1L2 4s2 2 2 4-2 6-2 8c0 4 10 6 10 6s10-2 10-6c0-2-2-6-2-8s2-4 2-4l-2-2m-4.95 14.45l-3.08-1.86-3.07 1.86.82-3.5L7 10.61l3.58-.31L11.97 7l1.4 3.29 3.58.31-2.72 2.34.82 3.51"/></svg>

<?xml version="1.0" encoding="UTF-8"?><!DOCTYPE svg PUBLIC "-//W3C//DTD SVG 1.1//EN" "http://www.w3.org/Graphics/SVG/1.1/DTD/svg11.dtd"><svg xmlns="http://www.w3.org/2000/svg" xmlns:xlink="http://www.w3.org/1999/xlink" version="1.1" id="mdi-police-badge-outline" width="24" height="24" viewBox="0 0 24 24"><path d="M12 4.21C13.24 4.72 14.65 5 16 5C17.05 5 18.1 4.84 19.08 4.54C18.5 5.5 18 6.71 18 8C18 9.32 18.54 10.93 19.1 12.63C19.5 13.83 20 15.33 20 16C20 17.03 16.47 19 12 19.96C7.54 19 4 17.03 4 16C4 15.33 4.5 13.83 4.9 12.63C5.46 10.93 6 9.32 6 8C6 6.71 5.5 5.5 4.92 4.54C5.9 4.84 6.96 5 8 5C9.35 5 10.76 4.72 12 4.21M20 2C18.85 2.64 17.4 3 16 3C14.6 3 13.14 2.63 12 2C10.86 2.63 9.4 3 8 3C6.6 3 5.15 2.64 4 2L2 4C2 4 4 6 4 8S2 14 2 16C2 20 12 22 12 22S22 20 22 16C22 14 20 10 20 8S22 4 22 4L20 2M15.05 16.45L11.97 14.59L8.9 16.45L9.72 12.95L7 10.61L10.58 10.3L11.97 7L13.37 10.29L16.95 10.6L14.23 12.94L15.05 16.45" /></svg>
